X:1
T:Title
%%score 1 { 2 | 3 }
L:1/8
Q:1/4=90
M:3/4
K:F
V:1 treble nm="Grand Piano, Soprano"
V:2 bass nm="Choir Pad, There’ll Be Joy By and By"
V:3 bass 
V:1
 [Fc]>[Fc] [Fc]3 [Fc] | [Fd]>[Fc] [Fc]2 [FA]2 | [FA]>[FA] [FA]3 [FA] | [FB]>[FA] [FA]2 [EG]2 | %4
w: By~Robert~Lowry * * *||||
 [EG]>[FA] [GB]3 [Ac] | [Bd]>[Ac] [FA]4 | [CF]>[CG] [FA]3 [FB] | [FA]>[EG] F4 | [Fc]>[Fc] [Fc]4 | %9
w: |||||
 (3[F-A][FG]F [Ec]4 | [GB]>[GB] [GB]4 | (3[EG][FA][GB] [Ac]4 | [Fc]>[Fd] [Fd] [Fc]3 | %13
w: ||||
 [FA]>[FB] [FB] [FA]3 | (3[F-A][EFG]F [Ec]4 | [EG]>[EA] F4- | F4 z2 |] %17
w: ||||
V:2
 A,>A, A,3 A, | B,>A, A,2[K:treble] C2 | C>C C3 C | D>C C2 C2 | C>C C3 C | C>C C4 | A,>B, C3 D | %7
 C>[K:bass]B, A,4 | A,>A, A,4 | (3CB,A, G,4 | C>C C4 | (3:2:2C2 C C4 | A,>B, B, A,3 | %13
 C>[K:treble]D D C3 | (3CB,[K:bass]A, G,4 | B,>C A,4- | A,4 z2 |] %17
V:3
 F,>F, F,3 F, | F,>F, F,2 F,2 | F,>F, F,3 F, | F,>F, C,2 C,2 | C,>C, C,3 C, | C,>C, F,4 | %6
 F,>F, F,3 B,, | C,>C, F,4 | F,>F, F,4 | (3:2:2F,2 F, C,4 | C,>C, C,4 | (3B,A,G, F,4 | %12
 F,>F, F, F,3 | F,>F, F, F,3 | (3:2:2F,2 F, C,4 | C,>C, F,4- | F,4 z2 |] %17

